Obsidian-SemiLight/actions/22s/go-parent-folder.svg

<svg viewBox="0 0 22 22" xmlns="http://www.w3.org/2000/svg"><path d="m3 3v1 15h1 8v-1h-8v-8h3v-.0078125l.0078125.0078125 2-2h8.9921875v4h1v-7h-6.992188l-2-2-.007812.0078125v-.0078125h-6zm12.5 8.792969-.707031.707031-2.792969 2.792969.707031.707031 2.292969-2.292969v5.292969h1v-1-1-3.292969l2.292969 2.292969.707031-.707031-2.792969-2.792969z" fill="#4d4d4d"/></svg>

<svg xmlns="http://www.w3.org/2000/svg" viewBox="0 0 22 22">
  <defs id="defs3051">
    <style type="text/css" id="current-color-scheme">
      .ColorScheme-Text {
        color:#4d4d4d;
      }
      </style>
  </defs>
 <path 
     style="fill:currentColor;fill-opacity:1;stroke:none" 
     d="M 3 3 L 3 4 L 3 19 L 4 19 L 12 19 L 12 18 L 4 18 L 4 10 L 7 10 L 7 9.9921875 L 7.0078125 10 L 9.0078125 8 L 18 8 L 18 12 L 19 12 L 19 5 L 12.007812 5 L 10.007812 3 L 10 3.0078125 L 10 3 L 4 3 L 3 3 z M 15.5 11.792969 L 14.792969 12.5 L 12 15.292969 L 12.707031 16 L 15 13.707031 L 15 19 L 16 19 L 16 18 L 16 17 L 16 13.707031 L 18.292969 16 L 19 15.292969 L 16.207031 12.5 L 15.5 11.792969 z "
     class="ColorScheme-Text"
     />
</svg>
